X:46
T:The Connemara stockings
T:Winter apples
T:The Galway reel
R:Reel
D:Chieftains 1
B:Pubscouts
B:Krassen O'Neill's p153
B:O'Neill's 1513
B:Roche 1 n151
S:Roche 1 n151
S:My arrangement from various sources, mainly Roche
Z:Transcription, arrangement, chords:Mike Long
M:C|
L:1/8
K:G
d2[|\
"G"g2fg edBA|"G"GFGB "D"AGED|"G"GABd "C"eaag|"D"fdef gaba|\
"G"g2fg edBA|
"G"GFGB "D"AGED|"G"GABd "C"eaag|"D"fdef "G"g2|]\
ef|\
"Em"gbef gbeg|"D"fdad fdad|
"Em"gbef gbeg|"D"afdf "Em"fee2|\
"G"gb~b2 b2ag|"D"fa~a2 a2gf|"G"gbag "D"fagf|"C"edef "D"gaba|]
